X: 2
T: March Of The Gaelic Order, The
C: Paddy O'Brien the younger, of Offaly, ca. 1973
S: Paddy O'Brien 
M: 6/8
L: 1/8
R: jig
K: Edor
|: e |\
c/d/cA cdc | B/d/BG GAB | A/B/AA Ad=c | BGB edB | cAc edc | B/d/eB GFD | 
E/F/EE Eec/B/ | A/B/AA AFD | E/F/EE Eec/B/ | A/B/AA AFD | E/F/EE FGF | E/F/EE E2 :|
|: e |\
c/d/cE Ace | B/c/BE E^GB | c/e/cA Aec | BGB edB | cAc edc | B/d/eB GFD |
E/F/EE Eec/B/ | A/B/AA AFD | E/F/EE Eec/B/ | A/B/AA AFD | E/F/EE FGF | E/F/ E2 E2 :|
